assets/Person with skullcap/Medium/Flat/person_with_skullcap_flat_medium.svg

<svg width="32" height="32" viewBox="0 0 32 32" fill="none" xmlns="http://www.w3.org/2000/svg">
<path d="M27.5 29.9998C27.4332 26.2354 26.7451 22.8779 24.0586 20.636C21.9064 18.8399 19.1135 17.7598 16 17.7598C12.9563 17.7598 10.1676 18.8435 8 20.6448C5.30221 22.8867 4.56675 26.2403 4.5 29.9998L5 30H24.5L27.5 29.9998Z" fill="#CA0B4A"/>
<path d="M8.02 29.9991H3.5V29.9791C3.51544 28.837 3.69047 27.7027 4.02 26.6091C4.25047 25.8521 4.39936 25.5276 4.47364 25.3657C4.51152 25.2831 4.53 25.2429 4.53 25.2091C4.80934 24.573 5.14046 23.961 5.52 23.3791C5.52 23.3764 5.52105 23.3739 5.52293 23.372C5.5248 23.3701 5.52735 23.3691 5.53 23.3691C6.21748 22.3243 7.05668 21.3877 8.02 20.5901V29.9991Z" fill="#990838"/>
<path d="M24.01 29.9991H28.53V29.9791C28.4963 28.8386 28.3216 27.7067 28.01 26.6091C27.7795 25.8521 27.6307 25.5276 27.5564 25.3657C27.5185 25.2831 27.5 25.2429 27.5 25.2091C27.2217 24.5725 26.8906 23.9604 26.51 23.3791C26.51 23.3764 26.509 23.3739 26.5071 23.372C26.5052 23.3701 26.5027 23.3691 26.5 23.3691C25.818 22.3201 24.9781 21.3827 24.01 20.5901V29.9991Z" fill="#990838"/>
<path d="M12 16.7598V19.4198C12 20.7098 13.0742 21.7598 14.3939 21.7598H15.243C15.3862 21.7598 15.5 21.8698 15.5 22.0098V29.9998H16.5V22.0098C16.5 21.8698 16.6343 21.7598 16.7775 21.7598H17.6061C18.9258 21.7598 20 20.7098 20 19.4198V16.7598H12Z" fill="#FCD53F"/>
<path d="M14.3791 20.7598H17.6106C18.3722 20.7598 18.9897 20.1598 19 19.4198V17.7598H13V19.4198C13 20.1598 13.6175 20.7598 14.3791 20.7598Z" fill="#321B41"/>
<path d="M15.2623 23C14.9754 23 14.75 23.22 14.75 23.5C14.75 23.78 14.9754 24 15.2623 24H16.7377C17.0246 24 17.25 23.78 17.25 23.5C17.25 23.22 17.0246 23 16.7377 23H15.2623Z" fill="#321B41"/>
<path d="M14.75 26.5498C14.75 26.2698 14.9754 26.0498 15.2623 26.0498H16.7377C17.0246 26.0498 17.25 26.2698 17.25 26.5498C17.25 26.8298 17.0246 27.0498 16.7377 27.0498H15.2623C14.9754 27.0498 14.75 26.8298 14.75 26.5498Z" fill="#321B41"/>
<path d="M15.2623 29C14.9754 29 14.75 29.22 14.75 29.5C14.75 29.78 14.9754 30 15.2623 30H16.7377C17.0246 30 17.25 29.78 17.25 29.5C17.25 29.22 17.0246 29 16.7377 29H15.2623Z" fill="#321B41"/>
<path d="M12.5 11.75C12.5 12.7165 11.7165 13.5 10.75 13.5C9.7835 13.5 9 12.7165 9 11.75C9 10.7835 9.7835 10 10.75 10C11.7165 10 12.5 10.7835 12.5 11.75Z" fill="#BB806E"/>
<path d="M23 11.75C23 12.7165 22.2165 13.5 21.25 13.5C20.2835 13.5 19.5 12.7165 19.5 11.75C19.5 10.7835 20.2835 10 21.25 10C22.2165 10 23 10.7835 23 11.75Z" fill="#BB806E"/>
<path d="M15.498 3.5C12.3153 3.5 9.7979 6.1658 10.0128 9.30619L10.4631 15.6072C10.6575 17.5863 12.2335 19 14.1574 19H17.8414C19.7653 19 21.3413 17.5863 21.5357 15.6072L21.986 9.30619C22.2111 6.1658 19.6937 3.5 16.5008 3.5H15.498V3.5Z" fill="#C68D7B"/>
<path d="M19.4127 9.82374C19.5227 9.90374 19.6527 9.94374 19.7827 9.94374C19.9627 9.94374 20.1527 9.86374 20.2727 9.70374C20.4827 9.43374 20.4327 9.05374 20.1627 8.84374C20.1192 8.81107 19.19 8.11406 17.8527 8.27374C17.5127 8.31374 17.2727 8.61374 17.3127 8.95374C17.3527 9.29374 17.6527 9.53374 17.9927 9.49374C18.7436 9.40216 19.2765 9.73825 19.3917 9.81091C19.4023 9.81759 19.4094 9.82205 19.4127 9.82374Z" fill="#593B39"/>
<path d="M11.6227 9.70399C11.7427 9.86399 11.9227 9.94399 12.1127 9.94399C12.2327 9.94399 12.3627 9.90399 12.4827 9.83399C12.5027 9.81399 13.0627 9.40399 13.9027 9.50399C14.2327 9.54399 14.5427 9.30399 14.5827 8.96399C14.6227 8.63399 14.3827 8.32399 14.0427 8.28399C12.7055 8.12432 11.7765 8.82113 11.733 8.8538C11.473 9.0538 11.4227 9.43399 11.6227 9.70399Z" fill="#593B39"/>
<path d="M12.0097 11.43C12.1797 10.75 12.7997 10.25 13.5297 10.25C14.2897 10.25 14.9297 10.79 15.0697 11.51C15.0997 11.66 14.9697 11.81 14.8097 11.81H12.3097C12.1097 11.81 11.9597 11.62 12.0097 11.43Z" fill="white"/>
<path d="M20.4097 11.43C20.2397 10.75 19.6197 10.25 18.8897 10.25C18.1297 10.25 17.4997 10.79 17.3497 11.51C17.3197 11.66 17.4497 11.81 17.6097 11.81H20.1097C20.3097 11.81 20.4597 11.62 20.4097 11.43Z" fill="white"/>
<path d="M12.7596 11.5498C12.7596 10.9998 13.2096 10.5498 13.7596 10.5498C14.3196 10.5498 14.7596 10.9898 14.7596 11.5498C14.7596 11.6398 14.7496 11.7298 14.7296 11.8198H12.7996C12.7696 11.7298 12.7596 11.6398 12.7596 11.5498Z" fill="#7D4533"/>
<path d="M19.6597 11.5498C19.6597 10.9998 19.2097 10.5498 18.6597 10.5498C18.1097 10.5498 17.6597 10.9898 17.6497 11.5498C17.6497 11.6498 17.6697 11.7398 17.6897 11.8198H19.6197C19.6497 11.7298 19.6597 11.6398 19.6597 11.5498Z" fill="#7D4533"/>
<path d="M13.7696 10.98C14.0796 10.98 14.3396 11.23 14.3396 11.55C14.3396 11.64 14.3096 11.73 14.2796 11.82L13.2696 11.82C13.2196 11.74 13.1996 11.65 13.1996 11.55C13.1996 11.24 13.4496 10.98 13.7696 10.98Z" fill="black"/>
<path d="M18.6596 10.98C18.3496 10.98 18.0896 11.23 18.0896 11.55C18.0896 11.64 18.1096 11.73 18.1496 11.82H19.1596C19.2096 11.74 19.2296 11.65 19.2296 11.55C19.2296 11.24 18.9796 10.98 18.6596 10.98Z" fill="black"/>
<path d="M13.5996 11.1497C13.5996 11.2491 13.519 11.3297 13.4196 11.3297C13.3202 11.3297 13.2396 11.2491 13.2396 11.1497C13.2396 11.0503 13.3202 10.9697 13.4196 10.9697C13.519 10.9697 13.5996 11.0503 13.5996 11.1497Z" fill="white"/>
<path d="M18.5297 11.1497C18.5297 11.2491 18.4491 11.3297 18.3497 11.3297C18.2503 11.3297 18.1697 11.2491 18.1697 11.1497C18.1697 11.0503 18.2503 10.9697 18.3497 10.9697C18.4491 10.9697 18.5297 11.0503 18.5297 11.1497Z" fill="white"/>
<path d="M15.5912 11.2869L15.0266 13.0316C14.9098 13.3861 15.1921 13.75 15.5815 13.75H16.4185C16.8079 13.75 17.0902 13.3861 16.9734 13.0316L16.4088 11.2869C16.2823 10.9044 15.7177 10.9044 15.5912 11.2869Z" fill="#AB6A55"/>
<path d="M15.9995 15.406C15.4036 15.406 14.8565 15.2621 14.3876 15.0223C14.2313 14.936 14.0554 15.1182 14.1531 15.2621C14.5439 15.8568 15.2277 16.25 15.9995 16.25C16.7713 16.25 17.4551 15.8568 17.8459 15.2621C17.9436 15.1182 17.7775 14.936 17.6114 15.0223C17.1425 15.2621 16.5954 15.406 15.9995 15.406Z" fill="#990838"/>
<path d="M9.04014 7.02C9.01003 6.84 9 6.67 9 6.5H11.1473V7.43C11.1473 7.81 10.9867 8.17 10.7058 8.42L10.5051 8.61C10.2643 8.82 10.1338 9.14 10.1539 9.48C10.194 10.11 10.2643 11.09 10.2643 11.09C9.91309 11.08 9.61207 10.82 9.55187 10.48L9.04014 7.02Z" fill="#593B39"/>
<path d="M20.8401 7.43V6.5H22.9974C23.0074 6.67 22.9874 6.85 22.9573 7.02L22.4355 10.47C22.3753 10.81 22.0843 11.06 21.7431 11.08C21.7431 11.08 21.8134 10.11 21.8535 9.48C21.8736 9.15 21.7431 8.84 21.5023 8.62L21.2816 8.42C21.0006 8.17 20.8401 7.81 20.8401 7.43Z" fill="#593B39"/>
<path d="M23 7.20004H9L9.20086 6.68004C10.1695 4.1382 12.4599 2.37632 15.1161 2.05347L16.0508 2.25L16.8842 2.05347C19.5419 2.37632 21.8396 4.1382 22.7991 6.68004L23 7.20004Z" fill="#CA0B4A"/>
<path d="M18.25 6.93V6.41C18.25 4.84 17.7651 3.32 16.8922 2.06C16.6013 2.02 16.3006 2 16 2C15.6994 2 15.3987 2.02 15.1078 2.06C14.2349 3.32 13.75 4.84 13.75 6.41V6.93H16H18.25Z" fill="#008463"/>
<path d="M22.5744 8H9.42565C9.01662 8 8.69738 7.64474 8.75724 7.24013L8.99667 5.57237C9.04655 5.24671 9.32588 5 9.66508 5H22.3349C22.6641 5 22.9535 5.24671 23.0033 5.57237L23.2428 7.24013C23.3026 7.64474 22.9834 8 22.5744 8Z" fill="#321B41"/>
<path d="M16 7.5C16.5523 7.5 17 7.05228 17 6.5C17 5.94772 16.5523 5.5 16 5.5C15.4477 5.5 15 5.94772 15 6.5C15 7.05228 15.4477 7.5 16 7.5Z" fill="#F9C23C"/>
</svg>

<svg xmlns="http://www.w3.org/2000/svg" width="32" height="32" fill="none"><path fill="#CA0B4A" d="M27.5 30c-.067-3.765-.755-7.122-3.441-9.364C21.906 18.84 19.113 17.76 16 17.76a12.474 12.474 0 0 0-8 2.885C5.302 22.887 4.567 26.24 4.5 30h23Z"/><path fill="#990838" d="M8.02 30H3.5v-.02c.015-1.143.19-2.277.52-3.37.23-.758.38-1.082.454-1.244.038-.083.056-.123.056-.157a12.688 12.688 0 0 1 .993-1.837.01.01 0 0 1 .007-.003 12.6 12.6 0 0 1 2.49-2.779V30ZM24.01 30h4.52v-.02a13.836 13.836 0 0 0-.52-3.37c-.23-.758-.38-1.082-.454-1.244-.038-.083-.056-.123-.056-.157a12.43 12.43 0 0 0-.993-1.837.01.01 0 0 0-.007-.003 12.152 12.152 0 0 0-2.49-2.779V30Z"/><path fill="#FCD53F" d="M12 16.76v2.66c0 1.29 1.074 2.34 2.394 2.34h.849c.143 0 .257.11.257.25V30h1v-7.99c0-.14.134-.25.277-.25h.83c1.319 0 2.393-1.05 2.393-2.34v-2.66h-8Z"/><path fill="#321B41" d="M14.38 20.76h3.23c.762 0 1.38-.6 1.39-1.34v-1.66h-6v1.66c0 .74.617 1.34 1.38 1.34ZM15.262 23a.501.501 0 0 0-.512.5c0 .28.225.5.512.5h1.476c.287 0 .512-.22.512-.5s-.225-.5-.512-.5h-1.476ZM14.75 26.55c0-.28.225-.5.512-.5h1.476c.287 0 .512.22.512.5s-.225.5-.512.5h-1.476a.501.501 0 0 1-.512-.5ZM15.262 29a.501.501 0 0 0-.512.5c0 .28.225.5.512.5h1.476c.287 0 .512-.22.512-.5s-.225-.5-.512-.5h-1.476Z"/><path fill="#BB806E" d="M12.5 11.75a1.75 1.75 0 1 1-3.5 0 1.75 1.75 0 0 1 3.5 0ZM23 11.75a1.75 1.75 0 1 1-3.5 0 1.75 1.75 0 0 1 3.5 0Z"/><path fill="#C68D7B" d="M15.498 3.5c-3.183 0-5.7 2.666-5.485 5.806l.45 6.301c.195 1.98 1.77 3.393 3.694 3.393h3.684c1.924 0 3.5-1.414 3.695-3.393l.45-6.3c.225-3.141-2.292-5.807-5.485-5.807h-1.003Z"/><path fill="#593B39" d="M19.413 9.824c.11.08.24.12.37.12a.615.615 0 0 0 .38-1.1c-.044-.033-.973-.73-2.31-.57a.61.61 0 0 0-.54.68c.04.34.34.58.68.54a2.136 2.136 0 0 1 1.42.33ZM11.623 9.704c.12.16.3.24.49.24.12 0 .25-.04.37-.11.02-.02.58-.43 1.42-.33.33.04.64-.2.68-.54.04-.33-.2-.64-.54-.68-1.337-.16-2.266.537-2.31.57-.26.2-.31.58-.11.85Z"/><path fill="#fff" d="M12.01 11.43c.17-.68.79-1.18 1.52-1.18.76 0 1.4.54 1.54 1.26.03.15-.1.3-.26.3h-2.5c-.2 0-.35-.19-.3-.38ZM20.41 11.43c-.17-.68-.79-1.18-1.52-1.18-.76 0-1.39.54-1.54 1.26-.03.15.1.3.26.3h2.5c.2 0 .35-.19.3-.38Z"/><path fill="#7D4533" d="M12.76 11.55c0-.55.45-1 1-1 .56 0 1 .44 1 1 0 .09-.01.18-.03.27H12.8a.842.842 0 0 1-.04-.27ZM19.66 11.55c0-.55-.45-1-1-1s-1 .44-1.01 1c0 .1.02.19.04.27h1.93c.03-.09.04-.18.04-.27Z"/><path fill="#000" d="M13.77 10.98c.31 0 .57.25.57.57 0 .09-.03.18-.06.27h-1.01a.57.57 0 0 1 .5-.84ZM18.66 10.98a.57.57 0 0 0-.57.57c0 .09.02.18.06.27h1.01a.57.57 0 0 0-.5-.84Z"/><path fill="#fff" d="M13.6 11.15a.18.18 0 1 1-.36 0 .18.18 0 0 1 .36 0ZM18.53 11.15a.18.18 0 1 1-.36 0 .18.18 0 0 1 .36 0Z"/><path fill="#AB6A55" d="m15.591 11.287-.564 1.745c-.117.354.165.718.555.718h.837c.389 0 .671-.364.554-.718l-.564-1.745c-.127-.383-.691-.383-.818 0Z"/><path fill="#990838" d="M16 15.406a3.53 3.53 0 0 1-1.612-.384c-.157-.086-.333.096-.235.24.39.595 1.075.988 1.846.988.772 0 1.456-.393 1.847-.988.098-.144-.069-.326-.235-.24a3.53 3.53 0 0 1-1.612.384Z"/><path fill="#593B39" d="M9.04 7.02C9.01 6.84 9 6.67 9 6.5h2.147v.93c0 .38-.16.74-.441.99l-.2.19c-.242.21-.372.53-.352.87.04.63.11 1.61.11 1.61a.749.749 0 0 1-.712-.61L9.04 7.02ZM20.84 7.43V6.5h2.157c.01.17-.01.35-.04.52l-.521 3.45a.746.746 0 0 1-.693.61s.07-.97.11-1.6c.02-.33-.11-.64-.35-.86l-.221-.2a1.323 1.323 0 0 1-.442-.99Z"/><path fill="#CA0B4A" d="M23 7.2H9l.2-.52a7.266 7.266 0 0 1 5.916-4.627l.935.197.833-.197A7.251 7.251 0 0 1 22.8 6.68L23 7.2Z"/><path fill="#008463" d="M18.25 6.93v-.52c0-1.57-.485-3.09-1.358-4.35a6.579 6.579 0 0 0-1.784 0 7.652 7.652 0 0 0-1.358 4.35v.52h4.5Z"/><path fill="#321B41" d="M22.574 8H9.426a.667.667 0 0 1-.669-.76l.24-1.668A.674.674 0 0 1 9.665 5h12.67c.33 0 .618.247.668.572l.24 1.668c.06.405-.26.76-.669.76Z"/><path fill="#F9C23C" d="M16 7.5a1 1 0 1 0 0-2 1 1 0 0 0 0 2Z"/></svg>
